svgs/light/cassette-tape.svg

<svg xmlns="http://www.w3.org/2000/svg" viewBox="0 0 576 512"><!-- Font Awesome Pro 6.0.0-alpha2 by @fontawesome - https://fontawesome.com License - https://fontawesome.com/license (Commercial License) --><path d="M512 32H64C28.654 32 0 60.654 0 96V416C0 451.346 28.654 480 64 480H512C547.346 480 576 451.346 576 416V96C576 60.654 547.346 32 512 32ZM134.211 448L151.906 394.938C154.062 388.375 160.156 384 167.062 384H408.938C415.844 384 421.938 388.375 424.094 394.938L441.789 448H134.211ZM544 416C544 433.645 529.645 448 512 448H475.541L454.469 384.812C447.938 365.188 429.625 352 408.938 352H167.062C146.375 352 128.062 365.188 121.531 384.812L100.459 448H64C46.355 448 32 433.645 32 416V96C32 78.355 46.355 64 64 64H512C529.645 64 544 78.355 544 96V416ZM416 160H160C124.654 160 96 188.654 96 224S124.654 288 160 288H416C451.346 288 480 259.346 480 224S451.346 160 416 160ZM160 256C142.355 256 128 241.645 128 224S142.355 192 160 192S192 206.355 192 224S177.645 256 160 256ZM360.877 256H215.123C220.621 246.555 224 235.717 224 224S220.621 201.445 215.123 192H360.877C355.379 201.445 352 212.283 352 224S355.379 246.555 360.877 256ZM416 256C398.355 256 384 241.645 384 224S398.355 192 416 192S448 206.355 448 224S433.645 256 416 256Z"/></svg>

<svg xmlns="http://www.w3.org/2000/svg" viewBox="0 0 576 512"><!--! Font Awesome Pro 6.3.0 by @fontawesome - https://fontawesome.com License - https://fontawesome.com/license (Commercial License) Copyright 2023 Fonticons, Inc. --><path d="M512 32H64C28.65 32 0 60.65 0 96v320c0 35.35 28.65 64 64 64h448c35.35 0 64-28.65 64-64V96C576 60.65 547.3 32 512 32zM134.2 448l17.7-53.06C154.1 388.4 160.2 384 167.1 384h241.9c6.906 0 13 4.375 15.16 10.94L441.8 448H134.2zM544 416c0 17.64-14.36 32-32 32h-36.46l-21.07-63.19C447.9 365.2 429.6 352 408.9 352H167.1c-20.69 0-39 13.19-45.53 32.81L100.5 448H64c-17.64 0-32-14.36-32-32V96c0-17.64 14.36-32 32-32h448c17.64 0 32 14.36 32 32V416zM416 160H160C124.7 160 96 188.7 96 224s28.65 64 64 64h256c35.35 0 64-28.65 64-64S451.3 160 416 160zM160 256C142.4 256 128 241.6 128 224s14.36-32 32-32s32 14.36 32 32S177.6 256 160 256zM360.9 256H215.1C220.6 246.6 224 235.7 224 224S220.6 201.4 215.1 192h145.8C355.4 201.4 352 212.3 352 224S355.4 246.6 360.9 256zM416 256c-17.64 0-32-14.36-32-32s14.36-32 32-32s32 14.36 32 32S433.6 256 416 256z"/></svg>
